X: 1
T: The Gael  [Em]
C: tune: Dougie MacLean
C: descant: Trevor Jones
R: jig
Z: 2012 John Chambers <jc:trillian.mit.edu>
M: 6/8
L: 1/8
K: Edor
[|\
"Em"~B2B gfe | fed edA | "Em"~B2B gfe | fed edB |\
"D"~d2d ~f2f | aff fef | "D"~d2d ~f2f | aff fef ||
||\
"Em"~g2g gfg | agg gfe | "D"~f2f fef | aff fed |\
"Em"~e2e ede | gfe Bee | ~e3 ede | gfe "D"fed |]
%
P: (Descant)
M: 6/8
[| g3-   g3- | g3 (2fe |   B3- B3- | B3 (2eg | (2fa- a3- | a3- (2ag | f3- f3- | f3- f3 ||
|| (2gb- b3- | b3 (2ag | (2fa- a3- | a3- a2f | (2fe- e3- | e3- e3-  | e3- e3- | e3  z3 |]
